Origami/16x16/apps/swatchbooker.svg

<svg width="16" height="16" version="1.1" viewBox="0 0 16 16" xmlns="http://www.w3.org/2000/svg">
 <path d="m3 0c-1.662 0-3 1.2495813-3 2.8007812v10.199219h5v2.277344c0.6102785-0.511843 1-1.248533 1-2.078125v-10.398438c0-1.5511999-1.338-2.8007812-3-2.8007812z" style="fill:#4f4f4f"/>
 <path d="m7.8613281 1.2871094c-0.9419728 0.0360369-1.8199375 0.5119509-2.3046875 1.3515625l-4.8203125 8.3496091h4.2636719v4.310547c0.2114823-0.186165 0.4050132-0.396483 0.5527344-0.652344l5.1992186-9.0078121c0.7756-1.3433786 0.242069-3.0928281-1.1972655-3.9238281-0.5397503-0.3116251-1.1281757-0.4493566-1.6933594-0.4277344z" style="fill:#4d4e99"/>
 <path d="m11.423828 4.90625c-0.366006 0.0364846-0.726655 0.1478969-1.0625 0.3417969l-8.6835936 5.0117191h3.3222656v5.011718l8.361328-4.828125c1.343379-0.7755996 1.754828-2.5587123 0.923828-3.9980465-0.62325-1.0795007-1.763311-1.6485163-2.861328-1.5390625z" style="fill:#e74949"/>
 <rect y="10" width="16" height="6" rx="2.8" ry="3" style="fill:#ffc255"/>
 <circle cx="3" cy="13" r="1" style="fill:#ffffff"/>
</svg>

<svg xmlns="http://www.w3.org/2000/svg" width="16" height="16" version="1.1" viewBox="0 0 16 16">
 <path style="fill:#4f4f4f" d="M 3 0 C 1.338 0 0 1.2495813 0 2.8007812 L 0 13 L 5 13 L 5 15.277344 C 5.6102785 14.765501 6 14.028811 6 13.199219 L 6 2.8007812 C 6 1.2495813 4.662 0 3 0 z"/>
 <path style="fill:#4d4e99" d="M 7.8613281 1.2871094 C 6.9193553 1.3231463 6.0413906 1.7990603 5.5566406 2.6386719 L 0.73632812 10.988281 L 5 10.988281 L 5 15.298828 C 5.2114823 15.112663 5.4050132 14.902345 5.5527344 14.646484 L 10.751953 5.6386719 C 11.527553 4.2952933 10.994022 2.5458438 9.5546875 1.7148438 C 9.0149372 1.4032187 8.4265118 1.2654872 7.8613281 1.2871094 z"/>
 <path style="fill:#e74949" d="M 11.423828 4.90625 C 11.057822 4.9427346 10.697173 5.0541469 10.361328 5.2480469 L 1.6777344 10.259766 L 5 10.259766 L 5 15.271484 L 13.361328 10.443359 C 14.704707 9.6677594 15.116156 7.8846467 14.285156 6.4453125 C 13.661906 5.3658118 12.521845 4.7967962 11.423828 4.90625 z"/>
 <rect style="fill:#ffc255" width="16" height="6" x="0" y="10" rx="2.8" ry="3"/>
 <circle style="fill:#ffffff" cx="3" cy="13" r="1"/>
</svg>
